assets/img/jaxon-placeholder-logo-05.1.2.svg

<svg fill="none" height="36" viewBox="0 0 139 36" width="139" xmlns="http://www.w3.org/2000/svg"><g fill="#f4f4f4"><path d="m16.4852 7.4879v-4.369h-13.77524v30.0176h13.77524v-4.369c-2.8219 0-5.5282-1.121-7.52351-3.1164-1.99535-1.9953-3.11633-4.7015-3.11633-7.5234 0-2.8218 1.12098-5.5282 3.11633-7.5235 1.99531-1.99532 4.70161-3.1163 7.52351-3.1163z"/><path d="m16.4854 7.48779v21.27961c2.8218 0 5.5281-1.121 7.5235-3.1164 1.9953-1.9953 3.1163-4.7015 3.1163-7.5234s-1.121-5.5282-3.1163-7.5235c-1.9954-1.99532-4.7017-3.11631-7.5235-3.11631z"/><path d="m34.8555 10.1606h3.084v14.8547h-3.084z"/><path d="m39.6665 19.9267c0-1.0687.3173-2.1134.9117-3.0016s1.4391-1.5799 2.4271-1.9875c.9881-.4075 2.0748-.5126 3.1225-.3018 1.0477.2107 2.0093.7278 2.7628 1.4856.7536.758 1.2652 1.7224 1.47 2.7714.2047 1.049.0934 2.1351-.3198 3.1207-.4133.9856-1.1098 1.8264-2.0013 2.4156-.8916.5894-1.9381.9006-3.0068.8946-.7088.0055-1.4117-.1305-2.0672-.4002-.6556-.2697-1.2508-.6675-1.7506-1.1701-.4998-.5027-.8942-1.1002-1.1601-1.7573s-.3979-1.3606-.3883-2.0694zm7.7306 0c-.0122-.4608-.1599-.9078-.4247-1.2849-.2648-.3773-.6349-.6681-1.0642-.8361-.4292-.168-.8984-.2057-1.3488-.1083-.4506.0972-.8624.3251-1.1841.6553-.3216.3301-.5389.7477-.6244 1.2006s-.0357.921.1434 1.3457c.1791.4246.4794.7872.8634 1.042.384.255.8346.391 1.2955.3912.3139.0062.6256-.0525.9157-.1724.2901-.1198.5523-.2981.7703-.5239.2181-.2257.3872-.4941.4969-.7881.1097-.2941.1575-.6077.1404-.9211z"/><path d="m62.6014 14.8379v9.6735c0 3.4129-2.6728 4.8624-5.3765 4.8624-.9536.0782-1.9102-.1112-2.7619-.5471-.8518-.4359-1.565-1.1009-2.0594-1.9201l2.6009-1.5009c.2107.425.5459.7755.961 1.0051.4151.2295.8903.3272 1.3622.2799.3007.037.6058.0072.8936-.0874s.5511-.2516.7711-.4599c.2201-.2083.3913-.4625.5016-.7447.1103-.2821.1569-.5851.1365-.8873v-.9355c-.3589.4351-.8143.7805-1.33 1.009-.5157.2284-1.0775.3334-1.641.3068-1.3632 0-2.6705-.5415-3.6345-1.5055-.9639-.9638-1.5055-2.2713-1.5055-3.6345s.5416-2.6705 1.5055-3.6345c.964-.9639 2.2713-1.5055 3.6345-1.5055.5635-.0266 1.1253.0784 1.641.3069.5157.2284.9711.5738 1.33 1.009v-1.028zm-2.9709 4.883c.0204-.4918-.1066-.9786-.365-1.3976-.2583-.419-.636-.7512-1.0847-.9538-.4486-.2026-.9475-.2663-1.4328-.1831-.4851.0833-.9343.3098-1.2897.6504-.3554.3405-.6007.7797-.7046 1.2609-.1038.4812-.0613.9824.1219 1.4392.1834.4568.4992.8484.9068 1.1243.4078.2759.8887.4237 1.3809.4241.3212.0231.6437-.0214.9465-.1306.303-.1093.5797-.2808.8122-.5037.2325-.2228.4157-.4919.5377-.7899s.1802-.6184.1708-.9402z"/><path d="m64.3382 19.9268c0-1.0679.3169-2.1117.9103-2.9995.5935-.8878 1.437-1.5795 2.4238-1.9876.9867-.4083 2.0724-.5145 3.1196-.3055 1.0473.2091 2.0088.7242 2.7633 1.48.7543.7558 1.2675 1.7185 1.4746 2.766.2071 1.0476.0988 2.1331-.3113 3.1191s-1.1035 1.8282-1.9923 2.42c-.8889.5918-1.9333.9066-3.0012.9045-.7102.0069-1.4147-.1281-2.072-.397s-1.2543-.6663-1.756-1.169c-.5018-.5027-.8981-1.1005-1.1657-1.7583-.2676-.6579-.4013-1.3625-.3931-2.0727zm7.7306 0c-.0121-.4612-.1601-.9085-.4254-1.286-.2652-.3774-.636-.6682-1.0658-.8359s-.8995-.2048-1.3503-.1066c-.4508.0981-.8626.3271-1.1838.6582-.3213.3312-.5377.7498-.622 1.2033-.0844.4536-.0331.9219.1475 1.3464.1807.4245.4826.7863.868 1.04.3853.2536.8369.388 1.2983.3861.3138.0062.6255-.0525.9156-.1724.2901-.1197.5523-.2981.7704-.5238.218-.2258.3871-.4942.4968-.7882.1097-.2941.1575-.6077.1404-.9211z"/><path d="m76.541 12.1138c0-.3619.1073-.7157.3084-1.0166s.4869-.5355.8212-.674c.3344-.1385.7023-.1747 1.0573-.1041.3548.0706.6809.2449.9369.5008.2559.2559.4301.582.5007.9369.0707.3549.0344.7228-.1041 1.0573-.1385.3343-.3731.62-.674.8211s-.6546.3084-1.0165.3084c-.4837-.0053-.946-.1998-1.288-.5418-.342-.3421-.5365-.8043-.5419-1.288zm.2981 2.7242h3.084v10.1772h-3.084z"/><path d="m93.1233 19.9266c.0346.6768-.0651 1.3538-.2932 1.992-.228.6382-.5801 1.225-1.0358 1.7265-.4558.5017-1.0062.9082-1.6197 1.1962-.6134.2881-1.2778.4519-1.9548.4823-.5746.0382-1.1504-.0538-1.6843-.2692-.5341-.2154-1.0125-.5486-1.3997-.9747v5.0269h-3.084v-14.2686h3.084v.956c.3877-.4249.8666-.7565 1.4006-.9701.5341-.2138 1.1095-.3038 1.6834-.2635.6743.0303 1.336.1933 1.9474.4794.6114.286 1.1604.6898 1.6157 1.1881.4554.4983.8081 1.0814 1.0381 1.7161.23.6345.3328 1.3082.3023 1.9826zm-3.084 0c-.0121-.4775-.165-.9408-.4392-1.3317-.2743-.391-.658-.6924-1.1028-.8662-.4448-.1739-.931-.2126-1.3979-.1113-.4667.1012-.8931.3381-1.2258.6807-.3328.3426-.557.7758-.6445 1.2454-.0876.4695-.0346.9544.1522 1.394.1869.4395.4993.8141.8982 1.0768.3989.2628.8664.4019 1.344.4.3271.0139.6535-.0415.9577-.1626.3043-.1211.5795-.3051.8076-.54s.4039-.5155.5161-.823c.1121-.3077.1579-.6355.1344-.9621z"/><path d="m102.508 21.962c0 2.3438-2.056 3.341-4.2352 3.341-.8889.08-1.7813-.1085-2.5619-.5409-.7807-.4325-1.4138-1.0892-1.8173-1.8852l2.6522-1.5009c.1051.3668.3329.6864.6454.9054s.6907.3239 1.0714.2974c.7298 0 1.0999-.2262 1.0999-.6374 0-1.1205-5.0063-.5243-5.0063-4.0503 0-2.2205 1.8709-3.3307 3.9886-3.3307.8049-.0361 1.6047.1466 2.3142.5285.709.3819 1.302.9488 1.716 1.6406l-2.6527 1.398c-.1172-.2652-.3086-.4907-.5512-.6494-.2427-.1588-.5261-.2438-.816-.2449-.5346 0-.8533.2056-.8533.5654 0 1.1719 5.0062.4009 5.0062 4.1634z"/><path d="m113.683 14.8381v10.1772h-3.084v-.956c-.351.4232-.796.758-1.299.9777-.504.2197-1.051.3179-1.6.2867-2.056 0-3.814-1.47-3.814-4.2148v-6.2708h3.084v5.8082c-.025.2429.004.488.084.7187.08.2306.209.4411.377.6171.17.1759.376.313.603.402.227.0888.471.1272.714.1126 1.11 0 1.892-.6579 1.892-2.056v-5.6026z"/><path d="m131.159 18.765v6.2503h-3.084v-5.983c0-1.028-.483-1.6653-1.46-1.6653-.976 0-1.593.7093-1.593 1.912v5.7363h-3.084v-5.983c0-1.028-.483-1.6653-1.46-1.6653-.976 0-1.593.7093-1.593 1.912v5.7363h-3.084v-10.1772h3.084v.9355c.319-.4133.736-.7406 1.214-.9524.477-.2118 1-.3014 1.52-.2607.521-.0272 1.042.0817 1.508.316.467.2343.865.586 1.155 1.0204.339-.454.787-.8146 1.303-1.0482.515-.2338 1.083-.3329 1.647-.2882 2.406 0 3.927 1.6654 3.927 4.2045z"/></g></svg>

<svg width="139" height="36" viewBox="0 0 139 36" fill="none" xmlns="http://www.w3.org/2000/svg">
<path d="M16.4852 7.4879V3.1189H2.70996V33.1365H16.4852V28.7675C13.6633 28.7675 10.957 27.6465 8.96169 25.6511C6.96634 23.6558 5.84536 20.9496 5.84536 18.1277C5.84536 15.3059 6.96634 12.5995 8.96169 10.6042C10.957 8.60888 13.6633 7.4879 16.4852 7.4879Z" fill="#F4F4F4"/>
<path d="M16.4854 7.48779V28.7674C19.3072 28.7674 22.0135 27.6464 24.0089 25.651C26.0042 23.6557 27.1252 20.9495 27.1252 18.1276C27.1252 15.3057 26.0042 12.5994 24.0089 10.6041C22.0135 8.60878 19.3072 7.48779 16.4854 7.48779Z" fill="#F4F4F4"/>
<path d="M34.8555 10.1606H37.9395V25.0153H34.8555V10.1606Z" fill="#F4F4F4"/>
<path d="M39.6665 19.9267C39.6665 18.858 39.9838 17.8133 40.5782 16.9251C41.1726 16.0369 42.0173 15.3452 43.0053 14.9376C43.9934 14.5301 45.0801 14.425 46.1278 14.6358C47.1755 14.8465 48.1371 15.3636 48.8906 16.1214C49.6442 16.8794 50.1558 17.8438 50.3606 18.8928C50.5653 19.9418 50.454 21.0279 50.0408 22.0135C49.6275 22.9991 48.931 23.8399 48.0395 24.4291C47.1479 25.0185 46.1014 25.3297 45.0327 25.3237C44.3239 25.3292 43.621 25.1932 42.9655 24.9235C42.3099 24.6538 41.7147 24.256 41.2149 23.7534C40.7151 23.2507 40.3207 22.6532 40.0548 21.9961C39.7889 21.339 39.6569 20.6355 39.6665 19.9267ZM47.3971 19.9267C47.3849 19.4659 47.2372 19.0189 46.9724 18.6418C46.7076 18.2645 46.3375 17.9737 45.9082 17.8057C45.479 17.6377 45.0098 17.6 44.5594 17.6974C44.1088 17.7946 43.697 18.0225 43.3753 18.3527C43.0537 18.6828 42.8364 19.1004 42.7509 19.5533C42.6654 20.0062 42.7152 20.4743 42.8943 20.899C43.0734 21.3236 43.3737 21.6862 43.7577 21.941C44.1417 22.196 44.5923 22.332 45.0532 22.3322C45.3671 22.3384 45.6788 22.2797 45.9689 22.1598C46.259 22.04 46.5212 21.8617 46.7392 21.6359C46.9573 21.4102 47.1264 21.1418 47.2361 20.8478C47.3458 20.5537 47.3936 20.2401 47.3765 19.9267H47.3971Z" fill="#F4F4F4"/>
<path d="M62.6014 14.8379V24.5114C62.6014 27.9243 59.9286 29.3738 57.2249 29.3738C56.2713 29.452 55.3147 29.2626 54.463 28.8267C53.6112 28.3908 52.898 27.7258 52.4036 26.9066L55.0045 25.4057C55.2152 25.8307 55.5504 26.1812 55.9655 26.4108C56.3806 26.6403 56.8558 26.738 57.3277 26.6907C57.6284 26.7277 57.9335 26.6979 58.2213 26.6033C58.5091 26.5087 58.7724 26.3517 58.9924 26.1434C59.2125 25.9351 59.3837 25.6809 59.494 25.3987C59.6043 25.1166 59.6509 24.8136 59.6305 24.5114V23.5759C59.2716 24.011 58.8162 24.3564 58.3005 24.5849C57.7848 24.8133 57.223 24.9183 56.6595 24.8917C55.2963 24.8917 53.989 24.3502 53.025 23.3862C52.0611 22.4224 51.5195 21.1149 51.5195 19.7517C51.5195 18.3885 52.0611 17.0812 53.025 16.1172C53.989 15.1533 55.2963 14.6117 56.6595 14.6117C57.223 14.5851 57.7848 14.6901 58.3005 14.9186C58.8162 15.147 59.2716 15.4924 59.6305 15.9276V14.8996L62.6014 14.8379ZM59.6305 19.7209C59.6509 19.2291 59.5239 18.7423 59.2655 18.3233C59.0072 17.9043 58.6295 17.5721 58.1808 17.3695C57.7322 17.1669 57.2333 17.1032 56.748 17.1864C56.2629 17.2697 55.8137 17.4962 55.4583 17.8368C55.1029 18.1773 54.8576 18.6165 54.7537 19.0977C54.6499 19.5789 54.6924 20.0801 54.8756 20.5369C55.059 20.9937 55.3748 21.3853 55.7824 21.6612C56.1902 21.9371 56.6711 22.0849 57.1633 22.0853C57.4845 22.1084 57.807 22.0639 58.1098 21.9547C58.4128 21.8454 58.6895 21.6739 58.922 21.451C59.1545 21.2282 59.3377 20.9591 59.4597 20.6611C59.5817 20.3631 59.6399 20.0427 59.6305 19.7209Z" fill="#F4F4F4"/>
<path d="M64.3382 19.9268C64.3382 18.8589 64.6551 17.8151 65.2485 16.9273C65.842 16.0395 66.6855 15.3478 67.6723 14.9397C68.659 14.5314 69.7447 14.4252 70.7919 14.6342C71.8392 14.8433 72.8007 15.3584 73.5552 16.1142C74.3095 16.87 74.8227 17.8327 75.0298 18.8802C75.2369 19.9278 75.1286 21.0133 74.7185 21.9993C74.3084 22.9853 73.615 23.8275 72.7262 24.4193C71.8373 25.0111 70.7929 25.3259 69.725 25.3238C69.0148 25.3307 68.3103 25.1957 67.653 24.9268C66.9957 24.6579 66.3987 24.2605 65.897 23.7578C65.3952 23.2551 64.9989 22.6573 64.7313 21.9995C64.4637 21.3416 64.33 20.637 64.3382 19.9268ZM72.0688 19.9268C72.0567 19.4656 71.9087 19.0183 71.6434 18.6408C71.3782 18.2634 71.0074 17.9726 70.5776 17.8049C70.1478 17.6372 69.6781 17.6001 69.2273 17.6983C68.7765 17.7964 68.3647 18.0254 68.0435 18.3565C67.7222 18.6877 67.5058 19.1063 67.4215 19.5598C67.3371 20.0134 67.3884 20.4817 67.569 20.9062C67.7497 21.3307 68.0516 21.6925 68.437 21.9462C68.8223 22.1998 69.2739 22.3342 69.7353 22.3323C70.0491 22.3385 70.3608 22.2798 70.6509 22.1599C70.941 22.0402 71.2032 21.8618 71.4213 21.6361C71.6393 21.4103 71.8084 21.1419 71.9181 20.8479C72.0278 20.5538 72.0756 20.2402 72.0585 19.9268H72.0688Z" fill="#F4F4F4"/>
<path d="M76.541 12.1138C76.541 11.7519 76.6483 11.3981 76.8494 11.0972C77.0505 10.7963 77.3363 10.5617 77.6706 10.4232C78.005 10.2847 78.3729 10.2485 78.7279 10.3191C79.0827 10.3897 79.4088 10.564 79.6648 10.8199C79.9207 11.0758 80.0949 11.4019 80.1655 11.7568C80.2362 12.1117 80.1999 12.4796 80.0614 12.8141C79.9229 13.1484 79.6883 13.4341 79.3874 13.6352C79.0865 13.8363 78.7328 13.9436 78.3709 13.9436C77.8872 13.9383 77.4249 13.7438 77.0829 13.4018C76.7409 13.0597 76.5464 12.5975 76.541 12.1138ZM76.8391 14.838H79.9231V25.0152H76.8391V14.838Z" fill="#F4F4F4"/>
<path d="M93.1233 19.9266C93.1579 20.6034 93.0582 21.2804 92.8301 21.9186C92.6021 22.5568 92.25 23.1436 91.7943 23.6451C91.3385 24.1468 90.7881 24.5533 90.1746 24.8413C89.5612 25.1294 88.8968 25.2932 88.2198 25.3236C87.6452 25.3618 87.0694 25.2698 86.5355 25.0544C86.0014 24.839 85.523 24.5058 85.1358 24.0797V29.1066H82.0518V14.838H85.1358V15.794C85.5235 15.3691 86.0024 15.0375 86.5364 14.8239C87.0705 14.6101 87.6459 14.5201 88.2198 14.5604C88.8941 14.5907 89.5558 14.7537 90.1672 15.0398C90.7786 15.3258 91.3276 15.7296 91.7829 16.2279C92.2383 16.7262 92.591 17.3093 92.821 17.944C93.051 18.5785 93.1538 19.2522 93.1233 19.9266ZM90.0393 19.9266C90.0272 19.4491 89.8743 18.9858 89.6001 18.5949C89.3258 18.2039 88.9421 17.9025 88.4973 17.7287C88.0525 17.5548 87.5663 17.5161 87.0994 17.6174C86.6327 17.7186 86.2063 17.9555 85.8736 18.2981C85.5408 18.6407 85.3166 19.0739 85.2291 19.5435C85.1415 20.013 85.1945 20.4979 85.3813 20.9375C85.5682 21.377 85.8806 21.7516 86.2795 22.0143C86.6784 22.2771 87.1459 22.4162 87.6235 22.4143C87.9506 22.4282 88.277 22.3728 88.5812 22.2517C88.8855 22.1306 89.1607 21.9466 89.3888 21.7117C89.6169 21.4768 89.7927 21.1962 89.9049 20.8887C90.017 20.581 90.0628 20.2532 90.0393 19.9266Z" fill="#F4F4F4"/>
<path d="M102.508 21.962C102.508 24.3058 100.452 25.303 98.2728 25.303C97.3839 25.383 96.4915 25.1945 95.7109 24.7621C94.9302 24.3296 94.2971 23.6729 93.8936 22.8769L96.5458 21.376C96.6509 21.7428 96.8787 22.0624 97.1912 22.2814C97.5037 22.5004 97.8819 22.6053 98.2626 22.5788C98.9924 22.5788 99.3625 22.3526 99.3625 21.9414C99.3625 20.8209 94.3562 21.4171 94.3562 17.8911C94.3562 15.6706 96.2271 14.5604 98.3448 14.5604C99.1497 14.5243 99.9495 14.707 100.659 15.0889C101.368 15.4708 101.961 16.0377 102.375 16.7295L99.7223 18.1275C99.6051 17.8623 99.4137 17.6368 99.1711 17.4781C98.9284 17.3193 98.645 17.2343 98.3551 17.2332C97.8205 17.2332 97.5018 17.4388 97.5018 17.7986C97.5018 18.9705 102.508 18.1995 102.508 21.962Z" fill="#F4F4F4"/>
<path d="M113.683 14.8381V25.0153H110.599V24.0593C110.248 24.4825 109.803 24.8173 109.3 25.037C108.796 25.2567 108.249 25.3549 107.7 25.3237C105.644 25.3237 103.886 23.8537 103.886 21.1089V14.8381H106.97V20.6463C106.945 20.8892 106.974 21.1343 107.054 21.365C107.134 21.5956 107.263 21.8061 107.431 21.9821C107.601 22.158 107.807 22.2951 108.034 22.3841C108.261 22.4729 108.505 22.5113 108.748 22.4967C109.858 22.4967 110.64 21.8388 110.64 20.4407V14.8381H113.683Z" fill="#F4F4F4"/>
<path d="M131.159 18.765V25.0153H128.075V19.0323C128.075 18.0043 127.592 17.367 126.615 17.367C125.639 17.367 125.022 18.0763 125.022 19.279V25.0153H121.938V19.0323C121.938 18.0043 121.455 17.367 120.478 17.367C119.502 17.367 118.885 18.0763 118.885 19.279V25.0153H115.801V14.8381H118.885V15.7736C119.204 15.3603 119.621 15.033 120.099 14.8212C120.576 14.6094 121.099 14.5198 121.619 14.5605C122.14 14.5333 122.661 14.6422 123.127 14.8765C123.594 15.1108 123.992 15.4625 124.282 15.8969C124.621 15.4429 125.069 15.0823 125.585 14.8487C126.1 14.6149 126.668 14.5158 127.232 14.5605C129.638 14.5605 131.159 16.2259 131.159 18.765Z" fill="#F4F4F4"/>
</svg>
